src/16/actions/special_paste.svg

<svg xmlns="http://www.w3.org/2000/svg" viewBox="0 0 16 16">
  <defs id="defs3051">
    <style type="text/css" id="current-color-scheme">
      .ColorScheme-Text {
        color:#5d656b;
      }
      </style>
  </defs>
 <path style="fill:currentColor;fill-opacity:1;stroke:none" 
       d="M 5 2 L 5 3 L 3 3 L 3 14 L 7 14 L 8 14 L 9 14 L 9 13 L 8 13 L 7 13 L 4 13 L 4 12 L 4 6 L 4 4 L 5 4 L 5 5 L 11 5 L 11 4 L 12 4 L 12 6 L 12 9 L 13 9 L 13 3 L 11 3 L 11 2 L 5 2 z M 5 7 L 5 8 L 10 8 L 10 7 L 5 7 z M 11.5 9 L 11.021484 10.345703 L 9.7324219 9.7324219 L 10.345703 11.021484 L 9 11.5 L 10.345703 11.978516 L 9.7324219 13.267578 L 11.021484 12.654297 L 11.5 14 L 11.978516 12.654297 L 13.267578 13.267578 L 12.654297 11.978516 L 14 11.5 L 12.654297 11.021484 L 13.267578 9.7324219 L 11.978516 10.345703 L 11.5 9 z M 5 10 L 5 11 L 8 11 L 8 10 L 5 10 z "
     class="ColorScheme-Text"
     />
</svg>

<svg xmlns="http://www.w3.org/2000/svg" viewBox="0 0 16 16"><path d="M5 2v1H3v11h6v-1H4V4h1v1h6V4h1v5h1V3h-2V2H5zm0 5v1h5V7H5zm6.5 2l-.479 1.346-1.289-.614.614 1.29L9 11.5l1.346.479-.614 1.289 1.29-.614L11.5 14l.479-1.346 1.289.614-.614-1.29L14 11.5l-1.346-.479.614-1.289-1.29.614L11.5 9zM5 10v1h3v-1H5z" fill="currentColor" color="#5d656b"/></svg>
